packages/icons/src/speaker-off.svg

<svg width="15" height="15" viewBox="0 0 15 15" fill="none" xmlns="http://www.w3.org/2000/svg">
  <path
    fill-rule="evenodd"
    clip-rule="evenodd"
    d="M7.72361 1.05279C7.893 1.13749 8 1.31062 8 1.5V13.5C8 13.6894 7.893 13.8625 7.72361 13.9472C7.55421 14.0319 7.35151 14.0136 7.2 13.9L3.33333 11H1.5C0.671573 11 0 10.3284 0 9.5V5.5C0 4.67158 0.671573 4 1.5 4H3.33333L7.2 1.1C7.35151 0.986371 7.55421 0.968093 7.72361 1.05279ZM7 2.5L3.8 4.9C3.71345 4.96491 3.60819 5 3.5 5H1.5C1.22386 5 1 5.22386 1 5.5V9.5C1 9.77614 1.22386 10 1.5 10H3.5C3.60819 10 3.71345 10.0351 3.8 10.1L7 12.5V2.5ZM14.8536 5.14645C15.0488 5.34171 15.0488 5.65829 14.8536 5.85355L13.2071 7.5L14.8536 9.14645C15.0488 9.34171 15.0488 9.65829 14.8536 9.85355C14.6583 10.0488 14.3417 10.0488 14.1464 9.85355L12.5 8.20711L10.8536 9.85355C10.6583 10.0488 10.3417 10.0488 10.1464 9.85355C9.95118 9.65829 9.95118 9.34171 10.1464 9.14645L11.7929 7.5L10.1464 5.85355C9.95118 5.65829 9.95118 5.34171 10.1464 5.14645C10.3417 4.95118 10.6583 4.95118 10.8536 5.14645L12.5 6.79289L14.1464 5.14645C14.3417 4.95118 14.6583 4.95118 14.8536 5.14645Z"
    fill="currentColor"
  />
</svg>

<svg xmlns="http://www.w3.org/2000/svg" width="15" height="15" fill="none"><path fill="currentColor" fill-rule="evenodd" d="M7.724 1.053A.5.5 0 0 1 8 1.5v12a.5.5 0 0 1-.8.4L3.333 11H1.5A1.5 1.5 0 0 1 0 9.5v-4A1.5 1.5 0 0 1 1.5 4h1.833L7.2 1.1a.5.5 0 0 1 .524-.047M7 2.5 3.8 4.9a.5.5 0 0 1-.3.1h-2a.5.5 0 0 0-.5.5v4a.5.5 0 0 0 .5.5h2a.5.5 0 0 1 .3.1L7 12.5zm7.854 2.646a.5.5 0 0 1 0 .708L13.207 7.5l1.647 1.646a.5.5 0 0 1-.708.708L12.5 8.207l-1.646 1.647a.5.5 0 0 1-.708-.708L11.793 7.5l-1.647-1.646a.5.5 0 0 1 .708-.708L12.5 6.793l1.646-1.647a.5.5 0 0 1 .708 0" clip-rule="evenodd"/></svg>
